src/images/svg/quote-icon.svg

<svg width="19" height="16" viewBox="0 0 19 16" fill="none" xmlns="http://www.w3.org/2000/svg">
<path d="M3.75038 8.30157C4.90975 7.84218 5.83944 7.9625 6.53944 8.6625C7.23945 9.36251 7.44725 10.4781 7.16287 12.0094C6.94413 13.1469 6.46288 14.0219 5.71912 14.6344C4.99725 15.225 4.15507 15.5203 3.19257 15.5203C1.88006 15.5203 0.972261 15.0172 0.469125 14.0109C-0.0339939 12.9828 -0.132432 11.6047 0.173817 9.87657C0.348813 8.93594 0.633189 7.98438 1.02693 7.02186C1.4207 6.05937 1.9457 5.07501 2.60193 4.06876C3.25819 3.06251 4.11132 2.18749 5.16132 1.44376C6.21132 0.699998 7.37069 0.21875 8.63945 0L8.31132 3.47812C7.23945 3.69688 6.28788 4.25469 5.45664 5.15157C4.62537 6.02656 4.05662 7.07656 3.75038 8.30157ZM13.6269 8.30157C14.7863 7.84218 15.716 7.9625 16.416 8.6625C17.116 9.36251 17.3238 10.4781 17.0394 12.0094C16.8207 13.1469 16.3394 14.0219 15.5957 14.6344C14.8738 15.225 14.0316 15.5203 13.0691 15.5203C11.7566 15.5203 10.8488 15.0172 10.3457 14.0109C9.84256 12.9828 9.74414 11.6047 10.0504 9.87657C10.2254 8.93594 10.5098 7.98438 10.9035 7.02186C11.2973 6.05937 11.8223 5.07501 12.4785 4.06876C13.1348 3.06251 13.9879 2.18749 15.0379 1.44376C16.0879 0.699998 17.2473 0.21875 18.516 0L18.1879 3.47812C17.116 3.69688 16.1645 4.25469 15.3332 5.15157C14.5019 6.02656 13.9332 7.07656 13.6269 8.30157Z" fill="#F4F4F4"/>
</svg>

<svg xmlns="http://www.w3.org/2000/svg" width="19" height="16" fill="none"><path fill="#f4f4f4" d="M3.75 8.302q1.74-.69 2.79.36t.623 3.347q-.328 1.707-1.444 2.625-1.083.886-2.526.886-1.969 0-2.724-1.51-.754-1.54-.295-4.133.263-1.412.853-2.855.591-1.444 1.575-2.953.985-1.51 2.56-2.625A8.4 8.4 0 0 1 8.638 0L8.31 3.478q-1.608.328-2.854 1.674Q4.21 6.465 3.75 8.302m9.877 0q1.74-.69 2.789.36t.623 3.347q-.328 1.707-1.443 2.625-1.083.886-2.527.886-1.968 0-2.723-1.51-.755-1.54-.296-4.133.263-1.412.853-2.855.591-1.444 1.576-2.953.984-1.51 2.559-2.625A8.4 8.4 0 0 1 18.516 0l-.328 3.478q-1.607.328-2.855 1.674-1.247 1.313-1.706 3.15"/></svg>
